contents/ui/assets/shuffle_off.svg

<?xml version="1.0" encoding="UTF-8" standalone="no"?>
<svg
   width="48"
   height="48"
   viewBox="0 0 48 48"
   fill="none"
   version="1.1"
   id="svg1"
   sodipodi:docname="shuffle_on copy.svg"
   inkscape:version="1.4 (e7c3feb100, 2024-10-09)"
   xmlns:inkscape="http://www.inkscape.org/namespaces/inkscape"
   xmlns:sodipodi="http://sodipodi.sourceforge.net/DTD/sodipodi-0.dtd"
   xmlns="http://www.w3.org/2000/svg"
   xmlns:svg="http://www.w3.org/2000/svg">
  <defs
     id="defs1" />
  <sodipodi:namedview
     id="namedview1"
     pagecolor="#505050"
     bordercolor="#eeeeee"
     borderopacity="1"
     inkscape:showpageshadow="0"
     inkscape:pageopacity="0"
     inkscape:pagecheckerboard="0"
     inkscape:deskcolor="#505050"
     inkscape:zoom="4.2864583"
     inkscape:cx="48.408262"
     inkscape:cy="15.28068"
     inkscape:window-width="1920"
     inkscape:window-height="1015"
     inkscape:window-x="0"
     inkscape:window-y="0"
     inkscape:window-maximized="1"
     inkscape:current-layer="svg1" />
  <g
     id="g4"
     transform="translate(0.9894881,4.000005)">
    <path
       d="m 36.0946,1.92066 c 0.2295,-0.56586 0.7791,-0.936135 1.3897,-0.936285 0.4055,2e-5 0.7937,0.164185 1.0762,0.455085 l 6,6 c 0.5856,0.58579 0.5856,1.5353 0,2.12109 l -6,5.99995 C 38.1843,15.9524 37.6256,16.1102 37.1,15.9732 36.5743,15.8362 36.1638,15.4257 36.0268,14.9 35.8897,14.3744 36.0476,13.8157 36.4394,13.4395 L 39.8789,10 2.49998,9.99999 c -0.83,0 -1.499995,-0.67 -1.499995,-1.5 0,-0.83 0.669995,-1.5 1.499995,-1.5 H 39.8789 L 36.4394,3.56054 C 36.0014,3.13505 35.865,2.48653 36.0946,1.92066 Z"
       fill="#ffffff"
       id="path1-5" />
    <path
       d="m 36.0946,24.9475 c 0.2295,-0.5659 0.7791,-0.9362 1.3897,-0.9363 0.4055,0 0.7937,0.1642 1.0762,0.4551 l 6,6 c 0.5856,0.5858 0.5856,1.5353 0,2.1211 l -6,5.9999 C 38.1843,38.9792 37.6256,39.137 37.1,39 c -0.5257,-0.137 -0.9362,-0.5475 -1.0732,-1.0732 -0.1371,-0.5256 0.0208,-1.0843 0.4126,-1.4605 l 3.4395,-3.4395 H 2.5 c -0.83,0 -1.5,-0.67 -1.5,-1.5 0,-0.83 0.67,-1.5 1.5,-1.5 h 37.3789 l -3.4395,-3.4395 c -0.438,-0.4254 -0.5744,-1.074 -0.3448,-1.6398 z"
       fill="#ffffff"
       id="path2" />
    <path
       d="m 36.0946,1.92066 c 0.2295,-0.56586 0.7791,-0.936135 1.3897,-0.936285 0.4055,2e-5 0.7937,0.164185 1.0762,0.455085 l 6,6 c 0.5856,0.58579 0.5856,1.5353 0,2.12109 l -6,5.99995 C 38.1843,15.9524 37.6256,16.1102 37.1,15.9732 36.5743,15.8362 36.1638,15.4257 36.0268,14.9 35.8897,14.3744 36.0476,13.8157 36.4394,13.4395 L 39.8789,10 2.49998,9.99999 c -0.83,0 -1.499995,-0.67 -1.499995,-1.5 0,-0.83 0.669995,-1.5 1.499995,-1.5 H 39.8789 L 36.4394,3.56054 C 36.0014,3.13505 35.865,2.48653 36.0946,1.92066 Z"
       stroke="#ffffff"
       id="path3" />
    <path
       d="m 36.0946,24.9475 c 0.2295,-0.5659 0.7791,-0.9362 1.3897,-0.9363 0.4055,0 0.7937,0.1642 1.0762,0.4551 l 6,6 c 0.5856,0.5858 0.5856,1.5353 0,2.1211 l -6,5.9999 C 38.1843,38.9792 37.6256,39.137 37.1,39 c -0.5257,-0.137 -0.9362,-0.5475 -1.0732,-1.0732 -0.1371,-0.5256 0.0208,-1.0843 0.4126,-1.4605 l 3.4395,-3.4395 H 2.5 c -0.83,0 -1.5,-0.67 -1.5,-1.5 0,-0.83 0.67,-1.5 1.5,-1.5 h 37.3789 l -3.4395,-3.4395 c -0.438,-0.4254 -0.5744,-1.074 -0.3448,-1.6398 z"
       stroke="#ffffff"
       id="path4" />
  </g>
</svg>

<?xml version="1.0" encoding="UTF-8"?>
<svg width="48" height="48" fill="none" version="1.1" viewBox="0 0 48 48" xmlns="http://www.w3.org/2000/svg">
 <g transform="translate(.98949 4)">
  <path d="m36.095 1.9207c0.2295-0.56586 0.7791-0.93614 1.3897-0.93628 0.4055 2e-5 0.7937 0.16418 1.0762 0.45508l6 6c0.5856 0.58579 0.5856 1.5353 0 2.1211l-6 6c-0.3762 0.3919-0.9349 0.5497-1.4605 0.4127-0.5257-0.137-0.9362-0.5475-1.0732-1.0732-0.1371-0.5256 0.0208-1.0843 0.4126-1.4605l3.4395-3.4395-37.379-1e-5c-0.83 0-1.5-0.67-1.5-1.5s0.67-1.5 1.5-1.5h37.379l-3.4395-3.4394c-0.438-0.42549-0.5744-1.074-0.3448-1.6399z" fill="#fff"/>
  <path d="m36.095 24.948c0.2295-0.5659 0.7791-0.9362 1.3897-0.9363 0.4055 0 0.7937 0.1642 1.0762 0.4551l6 6c0.5856 0.5858 0.5856 1.5353 0 2.1211l-6 5.9999c-0.3762 0.3919-0.9349 0.5497-1.4605 0.4127-0.5257-0.137-0.9362-0.5475-1.0732-1.0732-0.1371-0.5256 0.0208-1.0843 0.4126-1.4605l3.4395-3.4395h-37.379c-0.83 0-1.5-0.67-1.5-1.5s0.67-1.5 1.5-1.5h37.379l-3.4395-3.4395c-0.438-0.4254-0.5744-1.074-0.3448-1.6398z" fill="#fff"/>
  <path d="m36.095 1.9207c0.2295-0.56586 0.7791-0.93614 1.3897-0.93628 0.4055 2e-5 0.7937 0.16418 1.0762 0.45508l6 6c0.5856 0.58579 0.5856 1.5353 0 2.1211l-6 6c-0.3762 0.3919-0.9349 0.5497-1.4605 0.4127-0.5257-0.137-0.9362-0.5475-1.0732-1.0732-0.1371-0.5256 0.0208-1.0843 0.4126-1.4605l3.4395-3.4395-37.379-1e-5c-0.83 0-1.5-0.67-1.5-1.5s0.67-1.5 1.5-1.5h37.379l-3.4395-3.4394c-0.438-0.42549-0.5744-1.074-0.3448-1.6399z" stroke="#fff"/>
  <path d="m36.095 24.948c0.2295-0.5659 0.7791-0.9362 1.3897-0.9363 0.4055 0 0.7937 0.1642 1.0762 0.4551l6 6c0.5856 0.5858 0.5856 1.5353 0 2.1211l-6 5.9999c-0.3762 0.3919-0.9349 0.5497-1.4605 0.4127-0.5257-0.137-0.9362-0.5475-1.0732-1.0732-0.1371-0.5256 0.0208-1.0843 0.4126-1.4605l3.4395-3.4395h-37.379c-0.83 0-1.5-0.67-1.5-1.5s0.67-1.5 1.5-1.5h37.379l-3.4395-3.4395c-0.438-0.4254-0.5744-1.074-0.3448-1.6398z" stroke="#fff"/>
 </g>
</svg>
